src/svgs/tapeline.svg

<svg xmlns="http://www.w3.org/2000/svg" viewBox="0 0 24 24" width="512" height="512" aria-labelledby="litapeline-desc litapeline-title"><title id="litapeline-title">Tapeline Icon</title><desc id="litapeline-desc">A picture depicting a measuring tape.</desc><path d="M16 15v-3l1-1V9l-1-1a3 3 0 00-3-3H5a3 3 0 00-3 3v10h19v1h1v-4zm-7 0a4 4 0 114-4 4 4 0 01-4 4zm2-4a2 2 0 11-2-2 2 2 0 012 2z"/></svg>

<svg xmlns="http://www.w3.org/2000/svg" viewBox="0 0 24 24"><path d="M16,15V12l1-1V9L16,8a3,3,0,0,0-3-3H5A3,3,0,0,0,2,8V18H21v1h1V15ZM9,15a4,4,0,1,1,4-4A4,4,0,0,1,9,15Zm2-4A2,2,0,1,1,9,9,2,2,0,0,1,11,11Z"/></svg>
